X: 42
T:Goodbye Girls I'm Going To Boston
% Nottingham Music Database
S:via PR
M:2/4
L:1/4
K:G
d/2|"G"G/2B/2 d3/4d/4|"C"e/2e/2 c/2A/2|"D7"A/2B/2 c/2B/4c/4|"G"d/2d/2 B/2G/2|\
"G"G/2B/2 d3/4d/4|"C"e/2e/2 c/2A/2|"D7"d/2d/2 c/4B/4A/2|"G"G G/2::
d/2|"G"g/2g/4g/4 g/2a/2|g d/2e/2|"F"=f/2f/4f/4 f/2g/2|=f d|"G"g/2g/4g/4 g/2a/2\
|g d/2e/2|"F"=f/2d/2 c/2A/2|"G"G3/2:|<end>
<start>
